dist/svgs/carbon-icons/svg/iot.svg

<svg xmlns="http://www.w3.org/2000/svg" fill-rule="evenodd" viewBox="0 0 24 24"><path d="M12 10c1.1 0 2 .9 2 2s-.9 2-2 2-2-.9-2-2 .9-2 2-2zm0-1c-1.6 0-3 1.3-3 3s1.3 3 3 3 3-1.3 3-3-1.3-3-3-3z"/><path d="M17 7v10H7V7h10zm1-1H6v12h12V6zm-7-1h-1V2.1C10 1.5 9.5 1 8.9 1c-.6 0-.9.6-.9 1.1V5H7V2.1C7 .9 7.8 0 8.9 0H9c1.1 0 2 1 2 2.1V5zm6 0h-1V2.1c0-.6-.5-1.1-1.1-1.1-.6 0-.9.6-.9 1.1V5h-1V2.1c0-1.2.8-2.1 1.9-2.1h.1c1.1 0 2 1 2 2.1V5zm-1.9 19s-.1 0 0 0c-1.2 0-2.1-1-2.1-2.1V19h1v2.9c0 .6.5 1.1 1.1 1.1.7 0 .9-.6.9-1.1V19h1v2.9c0 1.2-.8 2.1-1.9 2.1zm-6 0s-.1 0 0 0C7.9 24 7 23 7 21.9V19h1v2.9c0 .6.5 1.1 1.1 1.1.7 0 .9-.6.9-1.1V19h1v2.9c0 1.2-.8 2.1-1.9 2.1zM5 17H2.1C.9 17 0 16.2 0 15.1c0-1.1 1-2 2.1-2H5v1H2.1c-.6-.1-1.1.4-1.1 1s.6.9 1.1.9H5v1zm0-6H2.1C.9 11 0 10.2 0 9.1c0-1.1 1-2 2.1-2H5v1H2.1C1.5 8 1 8.5 1 9.1s.6.9 1.1.9H5v1zm16.9 0H19v-1h2.9c.6 0 1.1-.4 1.1-1 0-.7-.6-1-1.1-1H19V7h2.9c1.2 0 2.1.8 2.1 1.9 0 1.2-1 2.1-2.1 2.1zm0 6H19v-1h2.9c.6 0 1.1-.5 1.1-1.1 0-.7-.6-.9-1.1-.9H19v-1h2.9c1.2 0 2.1.8 2.1 1.9 0 1.2-1 2.1-2.1 2.1z"/></svg>

<svg width="24px" height="24px" viewBox="0 0 24 24" version="1.1" xmlns="http://www.w3.org/2000/svg" xmlns:xlink="http://www.w3.org/1999/xlink" fill-rule="evenodd">
	<path d="M12,10 C13.1,10 14,10.9 14,12 C14,13.1 13.1,14 12,14 C10.9,14 10,13.1 10,12 C10,10.9 10.9,10 12,10 L12,10 Z M12,9 C10.4,9 9,10.3 9,12 C9,13.7 10.3,15 12,15 C13.7,15 15,13.7 15,12 C15,10.3 13.7,9 12,9 L12,9 L12,9 Z" id="Shape" fill="#010101"></path>
	<path d="M17,7 L17,17 L7,17 L7,7 L17,7 L17,7 Z M18,6 L6,6 L6,18 L18,18 L18,6 L18,6 L18,6 Z" id="Shape" fill="#010101"></path>
	<path d="M11,5 L10,5 L10,2.1 C10,1.5 9.5,1 8.9,1 C8.3,1 8,1.6 8,2.1 L8,5 L7,5 L7,2.1 C7,0.9 7.8,0 8.9,0 L8.9,0 L8.9,0 L8.9,0 L9,0 L9,0 C10.1,0 11,1 11,2.1 L11,5 L11,5 Z" id="Shape" fill="#010101"></path>
	<path d="M17,5 L16,5 L16,2.1 C16,1.5 15.5,1 14.9,1 C14.3,1 14,1.6 14,2.1 L14,5 L13,5 L13,2.1 C13,0.9 13.8,0 14.9,0 L14.9,0 L14.9,0 L14.9,0 L15,0 L15,0 C16.1,0 17,1 17,2.1 L17,5 L17,5 Z" id="Shape" fill="#010101"></path>
	<path d="M15.1,24 C15.1,24 15,24 15.1,24 L15.1,24 C13.9,24 13,23 13,21.9 L13,19 L14,19 L14,21.9 C14,22.5 14.5,23 15.1,23 C15.8,23 16,22.4 16,21.9 L16,19 L17,19 L17,21.9 C17,23.1 16.2,24 15.1,24 L15.1,24 L15.1,24 Z" id="Shape" fill="#010101"></path>
	<path d="M9.1,24 C9.1,24 9,24 9.1,24 L9.1,24 C7.9,24 7,23 7,21.9 L7,19 L8,19 L8,21.9 C8,22.5 8.5,23 9.1,23 C9.8,23 10,22.4 10,21.9 L10,19 L11,19 L11,21.9 C11,23.1 10.2,24 9.1,24 L9.1,24 L9.1,24 Z" id="Shape" fill="#010101"></path>
	<path d="M5,17 L2.1,17 C0.9,17 0,16.2 0,15.1 L0,15.1 L0,15.1 L0,15.1 L0,15.1 L0,15.1 L0,15.1 C0,14 1,13.1 2.1,13.1 L5,13.1 L5,14.1 L2.1,14.1 C1.5,14 1,14.5 1,15.1 C1,15.7 1.6,16 2.1,16 L5,16 L5,17 L5,17 Z" id="Shape" fill="#010101"></path>
	<path d="M5,11 L2.1,11 C0.9,11 0,10.2 0,9.1 L0,9.1 L0,9.1 L0,9.1 L0,9.1 L0,9.1 L0,9.1 C0,8 1,7.1 2.1,7.1 L5,7.1 L5,8.1 L2.1,8.1 C1.5,8 1,8.5 1,9.1 C1,9.7 1.6,10 2.1,10 L5,10 L5,11 L5,11 Z" id="Shape" fill="#010101"></path>
	<path d="M21.9,11 L19,11 L19,10 L21.9,10 C22.5,10 23,9.6 23,9 C23,8.3 22.4,8 21.9,8 L19,8 L19,7 L21.9,7 C23.1,7 24,7.8 24,8.9 L24,8.9 L24,8.9 L24,8.9 L24,8.9 C24,10.1 23,11 21.9,11 L21.9,11 Z" id="Shape" fill="#010101"></path>
	<path d="M21.9,17 L19,17 L19,16 L21.9,16 C22.5,16 23,15.5 23,14.9 C23,14.2 22.4,14 21.9,14 L19,14 L19,13 L21.9,13 C23.1,13 24,13.8 24,14.9 L24,14.9 L24,14.9 L24,14.9 L24,14.9 C24,16.1 23,17 21.9,17 L21.9,17 Z" id="Shape" fill="#010101"></path>
</svg>
